X: 146
T:Evening-star Waltz,The. CJF.146
M:3/8
L:1/16
Q:60
S:C.J.Fox MS, 1829/33, Beverley,E.Yorks.
R:Waltz
O:England
A:East Yorkshire
B:Kidson Coll.Mitchell Lib.M1805
Z:vmp.P J Headford 2000
K:C
"p"G2|G2E2F2|G4GG|A2c2 BA|A2G2G2|!
Gd d2G2|Gc c2B2|\
A3Bcd|c2B2"f 8va" G2|".."G2".."E2"...."F2|".."G4".."G".."G|!
A2c2 BA|A2G2 G2|Gd d2G2|c4cB|A3dBG|G2c2||!
"p"GG|d2G2 GG|e2c2G2|f2edcB|c2G2 GG|!
Gd B2 GG|Ge c2 cc|d3cBA|A2G2G2|!
G2E2F2|G4GG|A2c2 BA|A2G2 G2|!
"f"Gd B2 GG|Ge c2 cc|g3fed|f2e2 GG|!
Gd B2 GG|Ge c2c2|g^fg=fed|c4|]
